X: 11362
T: Will you to Flanders
%R: air, strathspey, march
B: James Oswald "The Caledonian Pocket Companion" v.1 b.1 p.36 #2
Z: 2020 John Chambers <jc:trillian.mit.edu>
M: C
L: 1/16
K: G
%%slurgraces 1
%%graceslurs 1
"_Slow"G2 |\
G2d2d2d2 e4{ef}g4 | (dB3) (A3G) G6 {de}f2 |\
(g2f2g2)a2 Tf4 (e3d) | (e3f)(Te3d) d6 (ef) |\
(g2f2g2)a2 Tf4(e3d) |
e2g2 {e}d2B2 d4(e2f2) |\
(g2f2)(e2d2) e4{ef}g4 | (dB3) (TA3G) G6 :: G2 |\
G4 A2(Bd) e4{ef}g4 | E4 {d}c2(BA) G6d2 |
g2b4ag Tf4Te3d | B4Te3d d6G2 |\
g6(3(bag) f6(3(agf) | e2g2 {e}d2B2 d6G2 |\
g6(3(fed) e4{ef}g4 | (dB3) (TAG3) G6 :|

%%center FINE


